svg/emoji_u1f4e3.svg

<svg enable-background="new 0 0 128 128" viewBox="0 0 128 128" xmlns="http://www.w3.org/2000/svg"><radialGradient id="c" cx="65.25" cy="89" r="26.44" gradientTransform="matrix(.6926 -.3702 .586 1.0965 -77.633 17.062)" gradientUnits="userSpaceOnUse"><stop stop-color="#FFC107" offset="0"/><stop stop-color="#FFBD06" offset=".3502"/><stop stop-color="#FFB104" offset=".6938"/><stop stop-color="#FFA000" offset="1"/></radialGradient><path d="m59.43 116.06c-3.57 0-7.04-1.92-8.84-5.28l-10.75-20.12c-1.26-2.36-1.53-5.06-0.75-7.62s2.5-4.66 4.86-5.92l19.89-10.63c4.86-2.6 10.94-0.76 13.53 4.11l10.75 20.12c2.6 4.87 0.76 10.94-4.11 13.53l-19.89 10.63c-1.49 0.8-3.1 1.18-4.69 1.18zm9.12-42.75c-0.32 0-0.64 0.08-0.94 0.24l-19.89 10.63c-0.64 0.34-0.88 0.89-0.97 1.18s-0.19 0.89 0.15 1.52l10.75 20.12c0.52 0.97 1.73 1.34 2.71 0.82l19.89-10.63c0.97-0.52 1.34-1.73 0.82-2.71l-10.75-20.11c-0.36-0.67-1.06-1.06-1.77-1.06z" fill="url(#c)"/><g opacity=".2"><path d="m68.54 68.31c2.6 0 4.97 1.42 6.19 3.7l10.75 20.12c1.82 3.41 0.53 7.66-2.87 9.47l-19.89 10.63c-1.02 0.55-2.13 0.82-3.28 0.82-2.6 0-4.97-1.42-6.19-3.7l-10.76-20.11c-0.88-1.65-1.07-3.54-0.53-5.33s1.75-3.26 3.4-4.14l19.89-10.63c1.03-0.55 2.13-0.83 3.29-0.83m-9.12 42.75c0.82 0 1.63-0.2 2.35-0.59l19.89-10.63c1.18-0.63 2.04-1.68 2.43-2.96s0.25-2.63-0.37-3.81l-10.76-20.12c-0.87-1.63-2.56-2.64-4.41-2.64-0.82 0-1.63 0.2-2.35 0.59l-19.9 10.63c-1.18 0.63-2.04 1.68-2.43 2.96s-0.26 2.63 0.37 3.81l10.76 20.12c0.88 1.63 2.57 2.64 4.42 2.64m9.12-45.75c-1.59 0-3.2 0.38-4.7 1.18l-19.89 10.63c-2.36 1.26-4.08 3.36-4.86 5.92s-0.51 5.26 0.75 7.62l10.75 20.12c1.8 3.37 5.26 5.28 8.84 5.28 1.59 0 3.2-0.38 4.7-1.18l19.89-10.63c4.86-2.6 6.71-8.67 4.11-13.53l-10.76-20.12c-1.8-3.37-5.26-5.29-8.83-5.29zm-9.12 42.75c-0.71 0-1.41-0.38-1.77-1.06l-10.75-20.12c-0.34-0.64-0.24-1.23-0.15-1.52s0.33-0.84 0.97-1.18l19.89-10.63c0.3-0.16 0.62-0.24 0.94-0.24 0.71 0 1.41 0.38 1.77 1.06l10.75 20.12c0.52 0.97 0.15 2.19-0.82 2.71l-19.89 10.63c-0.3 0.15-0.62 0.23-0.94 0.23z" fill="#424242"/></g><radialGradient id="b" cx="52.5" cy="19.75" r="92.976" gradientUnits="userSpaceOnUse"><stop stop-color="#EF5350" offset="0"/><stop stop-color="#EB4F4C" offset=".246"/><stop stop-color="#E04341" offset=".4878"/><stop stop-color="#CD302F" offset=".7272"/><stop stop-color="#C62828" offset=".8004"/><stop stop-color="#C62828" offset="1"/></radialGradient><path d="m36.96 109.64-18.17-18.17 45.12-85.52c1.3-2.23 4.35-2.62 6.17-0.8l52.77 52.77c1.82 1.82 1.43 4.88-0.8 6.17l-85.09 45.55z" fill="url(#b)"/><radialGradient id="a" cx="16.979" cy="92" r="24.165" gradientUnits="userSpaceOnUse"><stop stop-color="#E0E0E0" offset="0"/><stop stop-color="#CFCFCF" offset=".3112"/><stop stop-color="#A4A4A4" offset=".9228"/><stop stop-color="#9E9E9E" offset="1"/></radialGradient><path d="m29.57 123.42-25-25c-1-1-0.65-2.69 0.66-3.21l13.55-3.75 18.17 18.17-4.17 13.13c-0.52 1.31-2.21 1.66-3.21 0.66z" fill="url(#a)"/><g opacity=".2"><path d="m67.31 7c0.17 0 0.43 0.05 0.65 0.27l52.77 52.77c0.28 0.28 0.29 0.61 0.26 0.78-0.02 0.16-0.1 0.46-0.42 0.66l-85.03 45.52c-0.69 0.37-1.21 0.99-1.44 1.74l-3.61 11.37-22.53-22.54 11.62-3.22c0.8-0.22 1.47-0.76 1.85-1.49l45.1-85.43c0.24-0.39 0.62-0.43 0.78-0.43m0-3c-1.34 0-2.66 0.67-3.4 1.95l-45.12 85.52-13.55 3.75c-1.31 0.52-1.66 2.22-0.66 3.21l25 25c0.39 0.39 0.89 0.58 1.38 0.58 0.76 0 1.51-0.44 1.83-1.24l4.17-13.13 85.09-45.55c2.23-1.3 2.62-4.35 0.8-6.17l-52.77-52.77c-0.77-0.78-1.78-1.15-2.77-1.15z" fill="#424242"/></g></svg>

<svg width="128" height="128" style="enable-background:new 0 0 128 128;" xmlns="http://www.w3.org/2000/svg" xmlns:xlink="http://www.w3.org/1999/xlink">
  <g>
    <radialGradient id="SVGID_1_" cx="65.25" cy="89" gradientTransform="matrix(0.6926 -0.3702 0.586 1.0965 -77.6331 17.0619)" gradientUnits="userSpaceOnUse" r="26.4398">
      <stop offset="0" style="stop-color:#FFC107"/>
      <stop offset="0.3502" style="stop-color:#FFBD06"/>
      <stop offset="0.6938" style="stop-color:#FFB104"/>
      <stop offset="1" style="stop-color:#FFA000"/>
    </radialGradient>
    <path d="M59.43,116.06c-3.57,0-7.04-1.92-8.84-5.28L39.84,90.66c-1.26-2.36-1.53-5.06-0.75-7.62 c0.78-2.56,2.5-4.66,4.86-5.92l19.89-10.63c4.86-2.6,10.94-0.76,13.53,4.11l10.75,20.12c2.6,4.87,0.76,10.94-4.11,13.53 l-19.89,10.63C62.63,115.68,61.02,116.06,59.43,116.06z M68.55,73.31c-0.32,0-0.64,0.08-0.94,0.24L47.72,84.18 c-0.64,0.34-0.88,0.89-0.97,1.18s-0.19,0.89,0.15,1.52L57.65,107c0.52,0.97,1.73,1.34,2.71,0.82l19.89-10.63 c0.97-0.52,1.34-1.73,0.82-2.71L70.32,74.37C69.96,73.7,69.26,73.31,68.55,73.31z" style="fill:url(#SVGID_1_);"/>
  </g>
  <g style="opacity:0.2;">
    <path d="M68.54,68.31L68.54,68.31c2.6,0,4.97,1.42,6.19,3.7l10.75,20.12c1.82,3.41,0.53,7.66-2.87,9.47 l-19.89,10.63c-1.02,0.55-2.13,0.82-3.28,0.82c-2.6,0-4.97-1.42-6.19-3.7L42.49,89.24c-0.88-1.65-1.07-3.54-0.53-5.33 c0.54-1.79,1.75-3.26,3.4-4.14l19.89-10.63C66.28,68.59,67.38,68.31,68.54,68.31 M59.42,111.06c0.82,0,1.63-0.2,2.35-0.59 l19.89-10.63c1.18-0.63,2.04-1.68,2.43-2.96c0.39-1.28,0.25-2.63-0.37-3.81L72.96,72.95c-0.87-1.63-2.56-2.64-4.41-2.64 c-0.82,0-1.63,0.2-2.35,0.59L46.3,81.53c-1.18,0.63-2.04,1.68-2.43,2.96c-0.39,1.28-0.26,2.63,0.37,3.81L55,108.42 C55.88,110.05,57.57,111.06,59.42,111.06 M68.54,65.31c-1.59,0-3.2,0.38-4.7,1.18L43.95,77.12c-2.36,1.26-4.08,3.36-4.86,5.92 c-0.78,2.56-0.51,5.26,0.75,7.62l10.75,20.12c1.8,3.37,5.26,5.28,8.84,5.28c1.59,0,3.2-0.38,4.7-1.18l19.89-10.63 c4.86-2.6,6.71-8.67,4.11-13.53L77.37,70.6C75.57,67.23,72.11,65.31,68.54,65.31L68.54,65.31z M59.42,108.06 c-0.71,0-1.41-0.38-1.77-1.06L46.9,86.88c-0.34-0.64-0.24-1.23-0.15-1.52s0.33-0.84,0.97-1.18l19.89-10.63 c0.3-0.16,0.62-0.24,0.94-0.24c0.71,0,1.41,0.38,1.77,1.06l10.75,20.12c0.52,0.97,0.15,2.19-0.82,2.71l-19.89,10.63 C60.06,107.98,59.74,108.06,59.42,108.06L59.42,108.06z" style="fill:#424242;"/>
  </g>
  <radialGradient id="SVGID_2_" cx="52.5" cy="19.75" gradientUnits="userSpaceOnUse" r="92.9758">
    <stop offset="0" style="stop-color:#EF5350"/>
    <stop offset="0.246" style="stop-color:#EB4F4C"/>
    <stop offset="0.4878" style="stop-color:#E04341"/>
    <stop offset="0.7272" style="stop-color:#CD302F"/>
    <stop offset="0.8004" style="stop-color:#C62828"/>
    <stop offset="1" style="stop-color:#C62828"/>
  </radialGradient>
  <path d="M36.96,109.64L18.79,91.47L63.91,5.95c1.3-2.23,4.35-2.62,6.17-0.8l52.77,52.77 c1.82,1.82,1.43,4.88-0.8,6.17L36.96,109.64z" style="fill:url(#SVGID_2_);"/>
  <radialGradient id="SVGID_3_" cx="16.9786" cy="92" gradientUnits="userSpaceOnUse" r="24.1647">
    <stop offset="0" style="stop-color:#E0E0E0"/>
    <stop offset="0.3112" style="stop-color:#CFCFCF"/>
    <stop offset="0.9228" style="stop-color:#A4A4A4"/>
    <stop offset="1" style="stop-color:#9E9E9E"/>
  </radialGradient>
  <path d="M29.57,123.42l-25-25c-1-1-0.65-2.69,0.66-3.21l13.55-3.75l18.17,18.17l-4.17,13.13 C32.26,124.07,30.57,124.42,29.57,123.42z" style="fill:url(#SVGID_3_);"/>
  <g style="opacity:0.2;">
    <path d="M67.31,7c0.17,0,0.43,0.05,0.65,0.27l52.77,52.77c0.28,0.28,0.29,0.61,0.26,0.78 c-0.02,0.16-0.1,0.46-0.42,0.66l-85.03,45.52c-0.69,0.37-1.21,0.99-1.44,1.74l-3.61,11.37L7.96,97.57l11.62-3.22 c0.8-0.22,1.47-0.76,1.85-1.49L66.53,7.43C66.77,7.04,67.15,7,67.31,7 M67.31,4c-1.34,0-2.66,0.67-3.4,1.95L18.79,91.47L5.24,95.22 c-1.31,0.52-1.66,2.22-0.66,3.21l25,25c0.39,0.39,0.89,0.58,1.38,0.58c0.76,0,1.51-0.44,1.83-1.24l4.17-13.13l85.09-45.55 c2.23-1.3,2.62-4.35,0.8-6.17L70.08,5.15C69.31,4.37,68.3,4,67.31,4L67.31,4z" style="fill:#424242;"/>
  </g>
</svg>
